X: 19951
T: Jiggery Pokerwork
R: jig
M: 6/8
K: Gminor
|:G2 A BAG|d2 e c3|c2 d B2 d|dcB A3|
G2 A BAG|d2 e c3|c2 d B2 d|dcA G3:|
|:d^cd BGd|^cdB Gd^c|dBG eBG|fcA|bfd|
d^cd BGd|^cdB Gd^c|=c2 c f2 f|dcA G3:|

